X: 71
T:Cadw Twmpath
T:Having a Ball
M:9/8
L:1/8
Q:130
S:Cadw Twmpath Collection
R:Slip Jig
A:Wales
Z:brian_martin12345@yahoo.com
K:G
G2A BAG BAG|G2A BAG FED|G2A BAGBAG|A2BA2G FED:||
B2cd2ed2e|d2ed2c BAG|F2GA2BA2B|A2BA2G FED:||
